X: 8647
T: Croppies' March, The
R: polka
M: 2/4
K: Dmajor
FG|A2- AF|AB de|fd gf|ed Bd|
A2 AF|AB de|fg ef|d2 dB|
AB AF|AB de|fd d2|ed Bd|
A2 AF|AB de|fg ec|d2||
|:de|fa af|gb bg|af ef|
[1 dB B2|fa af|gb bg|af ef|d2:|
[2 dB Bd|A2 AF|AB de|fg ec|d2||

